components/icon/svg/24/maps_set-position.svg

<?xml version="1.0" encoding="UTF-8"?>
<svg width="24px" height="24px" viewBox="0 0 24 24" version="1.1" xmlns="http://www.w3.org/2000/svg" xmlns:xlink="http://www.w3.org/1999/xlink">
    <!-- Generator: Sketch 64 (93537) - https://sketch.com -->
    <title>ic-db_maps_set-position_24</title>
    <desc>Created with Sketch.</desc>
    <g id="Symbols:Icon" stroke="none" stroke-width="1" fill="none" fill-rule="evenodd">
        <g id="24dp-Icon/Maps/Set-Position" fill="#282D37">
            <path d="M12,2 C12.5625,2 13,2.4375 13,2.9688 L13,5.0312 C16.0938,5.5 18.5,7.9062 18.9375,11 L21,11 C21.5625,11 22,11.4375 22,12 C22,12.5625 21.5625,13 21,13 L18.9375,13 C18.5,16.0625 16.0625,18.5 13,18.9375 L13,21 C13,21.5625 12.5625,22 12,22 C11.4688,22 11,21.5625 11,21 L11,18.9375 C7.9375,18.5 5.5312,16.0625 5.0938,13 L3,13 C2.4375,13 2,12.5625 2,12 C2,11.4375 2.4375,11 3,11 L5.0938,11 C5.5312,7.9062 7.9375,5.5 11,5.0312 L11,2.9688 C11,2.4375 11.4688,2 12,2 Z M12,7 C9.25,7 7,9.25 7,12 C7,14.6875 9.125,16.9688 12,16.9688 C14.8438,16.9688 17,14.7188 17,12 C17,9.25 14.75,7 12,7 Z M10,12 C10,10.9062 10.9062,10 12,10 C13.0938,10 14,10.9062 14,12 C14,13.0938 13.0938,14 12,14 C10.9062,14 10,13.0938 10,12 Z" id="🎨-Color"></path>
        </g>
    </g>
</svg>

<svg width="24" height="24" xmlns="http://www.w3.org/2000/svg"><path d="M12 2a.98.98 0 011 .969V5.03c3.094.469 5.5 2.875 5.938 5.969H21c.563 0 1 .438 1 1 0 .563-.438 1-1 1h-2.063A7.027 7.027 0 0113 18.938V21c0 .563-.438 1-1 1-.531 0-1-.438-1-1v-2.063C7.937 18.5 5.531 16.063 5.094 13H3c-.563 0-1-.438-1-1 0-.563.438-1 1-1h2.094A7.027 7.027 0 0111 5.031V2.97c0-.531.469-.969 1-.969zm0 5c-2.75 0-5 2.25-5 5a4.948 4.948 0 005 4.969c2.844 0 5-2.25 5-4.969 0-2.75-2.25-5-5-5zm-2 5c0-1.094.906-2 2-2 1.094 0 2 .906 2 2 0 1.094-.906 2-2 2-1.094 0-2-.906-2-2z" fill="#282D37" fill-rule="evenodd"/></svg>
